X: 1149
T: Jack on the Green.
B:O'Neill's Music of Ireland
N:O'Neill's - 1149
Z:Transcribed by Stephen Foy (shf@access.digex.net)
Z:abc 1.6
M:9/8
R:slipjig
K:G
d|g2 g gfg efg|a2 a abg fed|g2 g gfg e2 e|def gdc BAG:|
|:F2 A G2 B A2 d|d^cd AB=c BAG|F2 A G2 B A2 d|def gdc BAG:|


